X:65
T:the Devels Dream
A:Wyresdale, Lancashire
B:E and J Winder, 1835-41
L:1/8
M:C|
O:England
Z:Richard Robinson 
%%RRN:"a Jigg"
%%RRN:2nd bar of part 2 guessed, illegible
%%TUNEURL: http://www.leeds.ac.uk/music/Info/RRTuneBk/gettune/00000e8e.html
%%ID:00000e8e
K:A
eaga eaga | eaga fedc | dfBf dfBf | dfBf dcBA |
eaga eaga | eaga fedc | dcde fgaf | edcB A2A2 ::
ceAe ceAe | ceAe dcBA | dfGf dfGf | dfBf dcBA |
ceAe ceAe | ceAe dcBA | dcde fgaf | edcB A2A2 :|
